X:231
T:score34
L:1/4
Q:1/4=96
M:3/2
I:linebreak $
K:D
 A2 d2 e2 | (f d2) (e f d |$ e a2) (e f e/d/ | e a2) (e f e/d/ | e A2) .a .a .a |$ %5
 (a g/f/ g) .g .g .g | (g f/e/ f) .a .a .a | (a g/f/ g) .g .g .g |$ g3 (a f e | f g e3 d | %10
 d2- d2- d2) |] %11
